X:1
T:E Dorian Scale Walk
C:Exercise
M:4/4
L:1/8
Q:1/4=80
K:Edor
|: E2 ^F2 G2 A2 | B2 c2 d2 e2 | e2 d2 c2 B2 | A2 G2 ^F2 E2 :|
|: E2 G2 B2 e2 | e2 B2 G2 E2 | G2 A2 B2 c2 | d4 e4 :|
